Numix-GalliumOS/64/actions/stock_mail-open-multiple.svg

<?xml version="1.0" encoding="UTF-8" standalone="no"?>
<svg
   xmlns:dc="http://purl.org/dc/elements/1.1/"
   xmlns:cc="http://creativecommons.org/ns#"
   xmlns:rdf="http://www.w3.org/1999/02/22-rdf-syntax-ns#"
   xmlns:svg="http://www.w3.org/2000/svg"
   xmlns="http://www.w3.org/2000/svg"
   xmlns:sodipodi="http://sodipodi.sourceforge.net/DTD/sodipodi-0.dtd"
   xmlns:inkscape="http://www.inkscape.org/namespaces/inkscape"
   width="64"
   height="64"
   viewBox="0 0 64 64"
   id="svg2"
   version="1.1"
   inkscape:version="0.91 r"
   sodipodi:docname="stock_mail-open-multiple.svg">
  <metadata
     id="metadata18">
    <rdf:RDF>
      <cc:Work
         rdf:about="">
        <dc:format>image/svg+xml</dc:format>
        <dc:type
           rdf:resource="http://purl.org/dc/dcmitype/StillImage" />
        <dc:title></dc:title>
      </cc:Work>
    </rdf:RDF>
  </metadata>
  <defs
     id="defs16" />
  <sodipodi:namedview
     pagecolor="#ffffff"
     bordercolor="#666666"
     borderopacity="1"
     objecttolerance="10"
     gridtolerance="10"
     guidetolerance="10"
     inkscape:pageopacity="0"
     inkscape:pageshadow="2"
     inkscape:window-width="1920"
     inkscape:window-height="1056"
     id="namedview14"
     showgrid="false"
     inkscape:zoom="3.6875"
     inkscape:cx="-90.28638"
     inkscape:cy="-6.681762"
     inkscape:window-x="0"
     inkscape:window-y="24"
     inkscape:window-maximized="1"
     inkscape:current-layer="svg2" />
  <path
     style="fill:#268bd2"
     d="M 3.0000002,0 C 0,0 0,0 0,3.000002 L 0,32.999998 C 0,36 0,36 3.0000002,36 L 45,36 c 3.000002,0 3.000002,0 3.000002,-3.000002 0,-9.656248 0,-24.421872 0,-29.999996 C 48.000002,0 48.000002,0 45,0 Z"
     id="path4-4"
     inkscape:connector-curvature="0" />
  <g
     style="fill-opacity:0.10199998"
     id="g6-9"
     transform="matrix(1.5,0,0,1.5,0,-12)">
    <path
       style="fill:#ffffff"
       d="M 0.875,8.015625 C 0.03125,8.109375 0,8.511719 0,10.011719 L 16,20 32,10.011719 C 32,8.015625 32,8.015625 30,8.015625 l -28,0 c -0.5,0 -0.84375,-0.03125 -1.125,0 z"
       id="path8-6"
       inkscape:connector-curvature="0" />
    <path
       style="fill:#000000"
       d="M 32,10 16,20 32,30 Z"
       id="path10-9"
       inkscape:connector-curvature="0" />
  </g>
  <path
     inkscape:connector-curvature="0"
     style="fill:#268bd2"
     d="m 19.55664,64 40.88672,0 C 64,64 64,64 64,60.572266 L 64,31 40,16 16,31 16,60.572266 C 16,64 16,64 19.55664,64 Z"
     id="path4143" />
  <path
     inkscape:connector-curvature="0"
     style="fill:#000000;fill-opacity:0.10199998"
     d="m 19.55664,64 40.88672,0 C 64,64 64,64 64,60.572266 L 64,31 40,16 16,31 16,60.572266 C 16,64 16,64 19.55664,64 Z"
     id="path4145" />
  <path
     inkscape:connector-curvature="0"
     style="fill:#ffffff"
     d="m 22,22 0,35.999998 36,0 L 58,22 Z"
     id="path4147" />
  <g
     style="fill:#268bd2"
     id="g4149"
     transform="matrix(1.5,0,0,1.5,16,16)">
    <path
       inkscape:connector-curvature="0"
       d="m 2,32 28,0 c 2,0 2,0 2,-2 L 32,12 0,30 c 0,2 0,2 2,2 z"
       id="path4151" />
    <path
       inkscape:connector-curvature="0"
       d="M 30,32 2,32 C 0,32 0,32 0,30 L 0,12 32,30 c 0,2 0,2 -2,2 z"
       id="path4153" />
  </g>
  <path
     inkscape:connector-curvature="0"
     style="fill:#ffffff;fill-opacity:0.10199998"
     d="M 60.44336,64 19.55664,64 C 16,64 16,64 16,60.63086 L 16,34 64,60.63086 C 64,64 64,64 60.44336,64 Z"
     id="path4155" />
</svg>

<svg xmlns="http://www.w3.org/2000/svg" viewBox="0 0 64 64">
 <path d="m 3 0 c -3 0 -3 0 -3 3 l 0 30 c 0 3 0 3 3 3 l 42 0 c 3 0 3 0 3 -3 0 -9.656 0 -24.422 0 -30 c 0 -3 0 -3 -3 -3" style="fill:#268bd2"/>
 <g transform="matrix(1.5,0,0,1.5,0,-12)" style="fill-opacity:0.102">
  <path d="m 0.875 8.02 c -0.844 0.094 -0.875 0.496 -0.875 1.996 l 16 9.988 16 -9.988 c 0 -1.996 0 -1.996 -2 -1.996 l -28 0 c -0.5 0 -0.844 -0.031 -1.125 0 z" style="fill:#fff"/>
  <path d="m 32 10 -16 10 16 10" style="fill:#000"/>
 </g>
 <path d="m 19.55664,64 40.88672,0 C 64,64 64,64 64,60.572266 L 64,31 40,16 16,31 16,60.572266 C 16,64 16,64 19.55664,64 Z" style="fill:#268bd2"/>
 <path d="m 19.55664,64 40.88672,0 C 64,64 64,64 64,60.572266 L 64,31 40,16 16,31 16,60.572266 C 16,64 16,64 19.55664,64 Z" style="fill:#000;fill-opacity:0.102"/>
 <path d="m 22 22 0 36 36 0 l 0 -36" style="fill:#fff"/>
 <g transform="matrix(1.5,0,0,1.5,16,16)" style="fill:#268bd2">
  <path d="m 2,32 28,0 c 2,0 2,0 2,-2 L 32,12 0,30 c 0,2 0,2 2,2 z"/>
  <path d="M 30,32 2,32 C 0,32 0,32 0,30 L 0,12 32,30 c 0,2 0,2 -2,2 z"/>
 </g>
 <path d="M 60.44336,64 19.55664,64 C 16,64 16,64 16,60.63086 L 16,34 64,60.63086 C 64,64 64,64 60.44336,64 Z" style="fill:#fff;fill-opacity:0.102"/>
</svg>
